X:1
T:Title
%%score { ( 1 3 ) | ( 2 4 5 ) }
L:1/8
M:3/4
K:Eb
V:1 treble nm="Grand Piano"
V:3 treble 
V:2 bass 
V:4 bass 
V:5 bass 
V:1
 z[Q:1/4=89] [GB]/-(3:2:2[GB]/d/4 [Ac][GB] | [Ge]3 [GB]/-(3:2:2[GB]/d/4 [Ac][GB] | %2
 [EG]3 [GB] [FA][EG] | [DF]3 [FA] [EG][DF] |[M:3/8] [B,E]3 | [GB]/-(3:2:2[GB]/d/4[Ac][GB] | %6
[M:3/4] [Ge]3 [GB]/-(3:2:2[GB]/d/4 [Ac][GB] |[M:2/4] [EG]3 [GB]/[Ge]/ | z/ d3/2 z2 | %9
[M:9/16] [Ge]4- [Ge]/ |[M:4/4] z2 z/ d3/2- d3 z | z2 z/ B3/2- B3 z | z2 z/ A3/2- A3 z | %13
 z2 z/ G3/2- G3 z | z2 z/ d3/2- d3 z | z2 z/ B3/2- B3 z | GB [FA]<[FA] FA G<G | %17
[M:7/8] EG[DF]<[DF][DB]>DE- | E2 z z z z2 |] %19
V:2
 z [E,E] [E,E][E,E] | [E,B,]3 [E,E] [E,E][E,E] | [E,B,]3 [E,B,] [E,B,][E,B,] | %3
 [B,,B,]3 [B,,B,] [B,,B,][B,,B,] |[M:3/8] [E,G,]3 | [E,E][E,E][E,E] | %6
[M:3/4] [E,B,]3 [E,E] [E,E][E,E] |[M:2/4] [E,B,]3 [E,B,] | z/ F3/2 z2 |[M:9/16] [E,B,]4- [E,B,]/ | %10
[M:4/4] z4 [B,,B,]>[B,,B,] .[B,,B,]2 | z4 [E,E]>[E,E] .[E,E]2 | z4 [B,,B,]>[B,,B,] .[B,,B,]2 | %13
 z4 [E,B,]>[E,B,] .[E,B,]2 | z4 [B,,B,]>[B,,B,] .[B,,B,]2 | z4 [E,E]>[E,E] .[E,E]2 | %16
 z2 [B,,B,]<[B,,B,] z2 [E,B,E]<[E,B,E] |[M:7/8] z2 [B,,B,]<[B,,B,][B,,F,]>[B,,A,B,][E,G,B,]- | %18
 [E,G,B,]2 z z z z2 |] %19
V:3
 x4 | x6 | x6 | x6 |[M:3/8] x3 | x3 |[M:3/4] x6 |[M:2/4] x4 | .[Fd]B, [Ac][Ad] |[M:9/16] x9/2 | %10
[M:4/4] Be .d2 A>A .A2 | Ac .B2 G>G .G2 | GB .A2 D>D .D2 | FA .G2 E>E .E2 | Be .d2 A>A .A2 | %15
 Ac .B2 G>G .G2 | x8 |[M:7/8] x7 | x7 |] %19
V:4
 x4 | x6 | x6 | x6 |[M:3/8] x3 | x3 |[M:3/4] x6 |[M:2/4] x4 | .[B,,B,]2 z2 |[M:9/16] x9/2 | %10
[M:4/4] x8 | x8 | x8 | x8 | x8 | x8 | x8 |[M:7/8] x7 | x7 |] %19
V:5
 x4 | x6 | x6 | x6 |[M:3/8] x3 | x3 |[M:3/4] x6 |[M:2/4] x4 | z B,, [B,,B,][B,,B,] |[M:9/16] x9/2 | %10
[M:4/4] x8 | x8 | x8 | x8 | x8 | x8 | x8 |[M:7/8] x7 | x7 |] %19

